X:1
T:St. Andrew of Crete, 11.11.11.11
T:John Bacchus Dykes, 1868
T:St. Andrew of Crete, 11.11.11.11
T:Public Domain
C:John Bacchus Dykes, 1868
Z:Public Domain
%%score ( 1 2 ) ( 3 4 )
L:1/8
M:none
K:Eb
V:1 treble 
V:2 treble 
V:3 bass 
V:4 bass 
V:1
 [EG]2 [CG]2 [EG]2 (DC) | [CG]2 [=B,G]6 | [=B,G]2 (B,C) [DG]2 CB, | (C4 D4) | %4
 [Cc]2 (CD) [EB]2 [GB]2 | (G2 FE) [DG]4 | [EG]2 [DG]2 [CE]2 [CF]2 | (C4 =B,4) || %8
[K:C] [CG]2 [Cc]2 [Gd]3 G | [Ge]4 [Ec]4 | [Ge]2 [Gd]2 [Gc]2 (FE) | [DG]8 | [CG]2 [EG]2 [Ec]2 (FG) | %13
 [Af]4 [Ge]4 | [Ge]2 ([Fd][Ec]) [DB]3 [FB] | [Ec]8 |] %16
V:2
 x6 G2 | x8 | x2 G2 x G2 x | G8 | x2 c2 x4 | A4 x4 | x8 | G6 x2 ||[K:C] x7 G | x8 | x6 A2 | x8 | %12
 x6 B2 | x8 | x8 | x8 |] %16
V:3
 [C,C]2 [C,E,]2 [C,G,]2 (F,E,) | [D,F,]2 [D,F,]6 | [G,,G,]2 (D,E,) [F,G,]2 (E,D,) | %3
 ([C,E,]4 [B,,G,]4) | [A,,A,]2 (E,F,) [E,G,]2 (B,E) | (E2 DC) [G,=B,]4 | %6
 [C,C]2 [B,,G,]2 [A,,A,]2 [A,,F,]2 | [G,,D,]8 ||[K:C] [C,E,]2 [E,G,]2 [G,B,]3 [B,D] | %9
 [CE]4 [C,G,]4 | [CE]2 [G,B,]2 [A,C]2 [A,C]2 | [B,F]8 | [CE]2 ([CE][B,D]) [A,C]2 ([A,C][G,B,]) | %13
 [F,C]4 [C,C]4 | [E,C]2 [F,A,]2 [G,B,]3 G, | [C,G,]8 |] %16
V:4
 x6 C,2 | x8 | x2 G,2 x G,2 x | x8 | x2 A,,2 x E,2 x | F,4 x4 | x8 | x8 ||[K:C] x8 | x8 | x8 | x8 | %12
 x8 | x8 | x7 G, | x8 |] %16

